!!!COM: Hugo Wolf
!!!CNT: Deutscher
!!!TXO: Deutsche 
!!!OTL: Der Rattenfa2nger
!!!OPR: Gedichte von J.W. v. Goethe
!!!ONM: No. 11
!!!ODT: 1888/
!!!LYR: Goethe
!!!ENC: Brian Bice
!!!YOR: 65 Songs for voice and piano, International Music Company, 1960
!!NB: Vocal melody and text only encoded.
**kern	**silbe
*clefG2	*
*k[]	*
*M6/8	*
=8	=8
4r	.
8r	.
4r	.
{8e	{Ich
=9	=9
4a	bin
8a	der
4cc	wohl-
8cc	-be-
=10	=10
4b	-kann-
8b	-te
8b	Sa2n-
8e	-ger,
8g	der
=11	=11
4a	viel-
8a	-ge-
8a	-rei-
8b	|
8a	-ste
=12	=12
4g	Rat-
8g	-ten-
4g	-fa2n-
8c}	-ger,}
=13	=13
{8d	{den
8f	die-
8a	-se
4dd	alt-
8cc	-be-
=14	=14
8cc	-ru2hm-
8b	|
8a	-te
4g#	Stadt
8b	ge-
=15	=15
4dd#	-wiss
8ee	be-
4b	-son-
8g#	-ders
=16	=16
4e	no2-
8cc#	-tig
[4.b#	hat;
=17	=17
4b#]}	|}
8r	.
4r	.
{8g#	{und
=18	=18
4ee	wa2-
8ee	-ren's
4ee	Rat-
8ee	-ten
=19	=19
4dd#	noch
8dd#	so
8dd#	vie-
8b	-le,
8cc#	und
=20	=20
4ddn	wa2-
8ddn	-ren
4ffn	Wie-
8ddn	-sel
=21	=21
4cc#	mit
8cc#	im
8cc#	Spie-
8b	|
8a}	-le,}
=22	=22
4r	.
8r	.
4r	.
{8a	{von
=23	=23
8dd	al-
8ccn	|
8b-	-len
8a	sa2u-
8g	-b'r
8f	ich
=24	=24
8cc#	die-
8dd	|
8ee	-sen
4.ff}	Ort,}
=25	=25
4r	.
{8ccn	{sie
[4.ee-	mu2s-
=26	=26
4ee-]	|
8ee-	-sen
8ee-	mit-
8dd	|
8cc	-ein-
=27	=27
([4een	-an-
16een]	|
16ff	|
[4een	|
16een]	|
16ff	|
=28	=28
4.ee	|
8dd	|
8cc)	|
8b	-der
=29	=29
4.a}	fort.}
4r	.
8r	.
=37	=37
{8b	{Dann
8b	ist
8b	der
4b	gut-
8b	-ge-
=38	=38
4b	-laun-
8a	-te
8a	Sa2n-
8a	-ger
8b	mit-
=39	=39
8cc	-un-
8a	|
8fn	-ter
8c	auch
8fn	|
8a	ein
=40	=40
4cc	Kin-
8ee	-der-
4ee	-fa2n-
8b}	-ger,}
=41	=41
{8b	{der
8b	selbst
8b	die
4ee	wil-
8dd#	-de-
=42	=42
8ddn	-sten
8ee-	|
8ffn	be-
4ee-}	-zwingt,}
8r	.
=43	=43
{4.een	{wenn
4dd#	er
8cc#	die
=44	=44
([4.b#	gold-
8b#]	|
8a#)	|
8g#	-nen
=45	=45
4.d#	Ma2r-
4.cc#	-chen
=46	=46
[4.b#	singt.
4b#]}	|}
8r	.
=47	=47
4r	.
8r	.
4r	.
{8g#	{Und
=48	=48
4ee	wa2-
8ee	-ren
4ee	Kna-
8ee	-ben
=49	=49
4dd#	noch
8dd#	so
8dd#	tru-
8b	-tzig,
8cc#	und
=50	=50
4ddn	wa2-
8ddn	-ren
4ffn	Ma2d-
8ddn	-chen
=51	=51
4cc#	noch
8cc#	so
8cc#	stu-
8b	|
8a}	-tzig,}
=52	=52
4r	.
8r	.
4r	.
{8a	{in
=53	=53
8d	mei-
8e	|
8f	-ne
8g	Sai-
8a	|
8bn	-ten
=54	=54
8cc#	greif
8dd	|
8ee	ich
4.ff}	ein,}
=55	=55
4r	.
{8cc	{sie
([4.ee-	mu2s-
=56	=56
4.ee-_	|
8ee-]	|
8dd)	|
8cc	-sen
=57	=57
([4een	al-
16een]	|
16ff	|
[4een	|
16een]	|
16ff	|
=58	=58
4ee)	|
8dd#	-le
8ddn	hin-
8cc	|
8b	-ter-
=59	=59
4.a}	-drein.}
4r	.
8r	.
=67	=67
{8b	{Dann
8b	ist
8b	der
4b	viel-
8b	-ge-
=68	=68
4b	-wand-
8a	-te
8a	Sa2n-
8a	-ger
8b	ge-
=69	=69
8cc	-le-
8a	|
8fn	-gent-
8c	-lich
8fn	|
8a	ein
=70	=70
4cc	Ma2d-
8ee	-chen-
4ee	-fa2n-
8b}	-ger;}
=71	=71
{8b	{in
8b	kei-
8b	-nem
4ee	Sta2dt-
8dd#	-chen
=72	=72
8ddn	langt
8ee-	|
8ff	er
4ee-}	an,}
8r	.
=73	=73
{4.een	{wo
4dd#	er's
8cc#	nicht
=74	=74
([4.b#	man-
8b#]	|
8a#)	|
8g#	-cher
=75	=75
4.d#	an-
4.cc#	-ge-
=76	=76
[4.b#	-tan.
4b#]}	|}
8r	.
=77	=77
4r	.
8r	.
4r	.
{8g#	{Und
=78	=78
4ee	wa2-
8ee	-ren
4ee	Ma2d-
8ee	-chen
=79	=79
4dd#	noch
8dd#	so
8dd#	blo2-
8b	-de,
8cc#	und
=80	=80
4ddn	wa2-
8ddn	-ren
4ffn	Wei-
8ddn	-ber
=81	=81
4cc#	noch
8cc#	so
8cc#	spro2-
8b	|
8a}	-de,}
=82	=82
4r	.
8r	.
4r	.
{8a	{doch
=83	=83
[4.dd	al-
4dd]	|
8cc	-len
=84	=84
[4.b	wird
4b]	|
8b	so
=85	=85
[4.ee-	lie-
4ee-]	|
8dd	-be-
=86	=86
[4.cc	-bang
8cc]}	|}
8r	.
{8cc	{bei
=87	=87
4.ff	Zau-
4.ff	-ber-
=88	=88
([4.ee	-sai-
8ee]	|
8cc#)	|
8a	-ten
=89	=89
4.e	und
4.g#	Ge-
=90	=90
[4.a	-sang
4a]}	|}
8r	.
=97	=97
4r	.
8r	.
4r	.
{8e	{Ich
=98	=98
4a	bin
8a	der
4cc	wohl-
8cc	-be-
=99	=99
4b	-kann-
8b	-te
8b	Sa2n-
8e	-ger,
8g	der
=100	=100
4a	viel-
8a	-ge-
8a	-rei-
8b	|
8a	-ste
=101	=101
4g	Rat-
8g	-ten-
4g	-fa2n-
8c}	-ger,}
=102	=102
{8d	{den
8f	die-
8a	-se
4dd	alt-
8cc	-be-
=103	=103
8cc	-ru2hm-
8b	|
8a	-te
4g#	Stadt
8b	ge-
=104	=104
4dd#	-wiss
8ee	be-
4b	-son-
8g#	-ders
=105	=105
4e	no2-
8cc#	-tig
[4.b#	hat;
=106	=106
4b#]}	|}
8r	.
4r	.
{8g#	{und
=107	=107
4ee	wa2-
8ee	-ren's
4ee	Rat-
8ee	-ten
=108	=108
4dd#	noch
8dd#	so
8dd#	vie-
8b	-le,
8cc#	und
=109	=109
4ddn	wa2-
8ddn	-ren
4ffn	Wie-
8ddn	-sel
=110	=110
4cc#	mit
8cc#	im
8cc#	Spie-
8b	|
8a}	-le,}
=111	=111
4r	.
8r	.
4r	.
{8a	{von
=112	=112
8dd	al-
8cc	|
8b-	-len
8a	sa2u-
8g	-b'r
8f	ich
=113	=113
8cc#	die-
8dd	|
8ee	-sen
4.ff}	Ort,}
=114	=114
4r	.
{8cc	{sie
[4.ee-	mu2s-
=115	=115
4ee-]	|
8ee-	-sen
8ee-	mit-
8dd	|
8cc	-ein-
=116	=116
([4een	-an-
16een]	|
16ff	|
[4een	|
16een]	|
16ff	|
=117	=117
4.ee	|
8dd	|
8cc)	|
8b	-der
=118	=118
4.a}	fort.}
4r	.
8r	.
*-	*-
